X: 4752
T: Boys Of Bluehill, The
R: hornpipe
M: 4/4
K: Dmajor
|:BAFA ADFA|BA (3Bcd ecde|faaf egfe|dfed GBdB|BAFA AFDA|
BA (3Bcd ecde|faaf egfe|1 dfec dA (3.F.G.A.:|2 d2dc d2 (3.e.f.g||
|:afde f~a2f|~g3a agbg|faaf ~g3e|dfed GBdG|
BAFA AFDA|BA (3Bcd ecde|faaf egfe|1 d 2dc d2 (3.e.f.g.:|2 d2dc d A (3.F.G.A||

